nado/static/img/certificate-decor-right.svg

<svg width="98" height="130" viewBox="0 0 98 130" fill="none" xmlns="http://www.w3.org/2000/svg">
<g opacity="0.5">
<path d="M9.43832 122.002L10.1129 121.616C10.7875 121.231 11.3657 120.845 12.0403 120.46C21.0988 115.545 33.2411 111.497 45.1907 106.101C49.6236 104.174 53.8638 101.957 58.0076 99.4515C88.8453 81.238 95.8801 50.8822 82.3887 18.8881L82.7741 18.7917C96.362 50.9786 89.4235 81.5271 58.4895 100.03C54.3457 102.439 50.0091 104.752 45.5762 106.679C33.6266 112.172 21.5807 116.123 12.5221 121.038C11.9439 121.327 11.462 121.616 10.8838 121.905L10.2093 122.291C6.74004 124.314 3.65627 126.916 1.1507 130L0.476135 129.518C2.9817 126.531 6.06545 123.929 9.43832 122.002Z" fill="#FF005C"/>
<path d="M23.2188 114.196C22.4479 111.016 22.6406 107.257 29.29 101.861C30.9282 100.608 32.6628 99.3551 34.3975 98.295C33.9156 109.377 27.8445 110.726 23.2188 114.196Z" fill="#FF005C"/>
<path d="M39.119 106.872C37.3844 108.124 35.7461 108.992 35.0716 109.474C33.8188 102.921 40.0827 97.9095 45.5757 94.0548C45.7684 97.0422 45.0938 99.9332 43.6483 102.535C42.3955 104.27 40.8536 105.715 39.119 106.872Z" fill="#FF005C"/>
<path d="M46.6357 104.559C45.5757 98.7769 50.0086 93.8621 55.5979 88.9474C57.0434 97.235 52.1287 100.993 46.6357 104.559Z" fill="#FF005C"/>
<path d="M57.7185 98.7768C56.5621 94.0548 59.2603 88.9473 64.2715 82.7798C66.8734 89.4292 63.6933 94.4403 57.7185 98.7768Z" fill="#FF005C"/>
<path d="M67.933 91.6456C66.102 86.7309 68.8966 80.0815 71.4022 75.3595C74.486 79.7924 74.1969 85.4781 67.933 91.6456Z" fill="#FF005C"/>
<path d="M76.7027 66.5901C81.5211 71.2157 80.3647 77.4796 76.7027 82.9726C74.1008 78.3469 75.2572 71.6012 76.7027 66.5901Z" fill="#FF005C"/>
<path d="M79.8828 56.4714C83.2557 58.6879 86.2431 63.7954 82.9666 72.4685C79.6901 68.5174 79.3046 61.2898 79.8828 56.4714Z" fill="#FF005C"/>
<path d="M81.6177 50.1112C81.3286 48.6656 81.1358 47.3165 81.0395 45.871C84.8942 47.5092 88.3634 52.0385 86.8215 61.0971C84.0269 58.0133 82.1959 54.255 81.6177 50.1112Z" fill="#FF005C"/>
<path d="M80.0755 34.7887C83.8339 35.7524 87.9777 39.7035 88.1704 48.8584C83.1593 45.1964 80.6537 38.1616 80.0755 34.7887Z" fill="#FF005C"/>
<path d="M77.377 23.8029C83.4482 24.5738 85.9538 31.0304 87.2065 36.7161C82.5809 33.7287 79.0153 29.1994 77.377 23.8029Z" fill="#FF005C"/>
<path d="M84.2197 24.8628C79.2086 22.3573 75.2575 18.2134 73.1374 13.106C80.1723 13.106 83.1597 22.1645 84.2197 24.8628Z" fill="#FF005C"/>
<path d="M72.0768 0C79.5934 6.07116 82.099 12.6242 81.7135 17.1534C77.5697 14.6479 73.6186 4.62565 72.0768 0Z" fill="#FF005C"/>
<path d="M25.0496 116.701C26.1097 116.509 32.6627 114.581 36.6137 115.545C39.6011 116.316 42.4922 117.761 44.9014 119.689C42.7813 120.267 40.5648 120.749 38.3484 120.942C29.7716 122.002 26.8806 119.303 25.0496 116.701Z" fill="#FF005C"/>
<path d="M49.5268 109.666C52.6105 110.245 55.5979 111.305 58.3926 112.943C56.2725 113.714 54.056 114.388 51.7432 114.87C48.8522 115.448 45.9611 115.448 43.0701 114.87C41.0464 114.388 39.2154 113.136 37.9626 111.401C38.5408 111.305 40.4682 110.726 42.6846 110.245C44.9011 109.666 47.2139 109.474 49.5268 109.666Z" fill="#FF005C"/>
<path d="M71.499 104.27C69.4753 105.426 67.3552 106.39 65.1388 107.161C56.9475 109.955 53.2855 107.835 50.9727 105.426C52.1291 105.137 58.2966 102.535 62.1514 102.535C65.3315 102.632 68.4153 103.21 71.499 104.27Z" fill="#FF005C"/>
<path d="M83.1597 92.9948C81.425 94.633 79.4977 96.0786 77.474 97.235C70.2464 101.475 65.9099 100.319 63.1152 98.1986C68.4154 95.9822 70.2464 92.513 83.1597 92.9948Z" fill="#FF005C"/>
<path d="M74.1005 89.2365C79.7862 85.189 79.4971 82.3944 92.0249 79.2142C88.0738 85.5745 81.2317 92.1275 74.1005 89.2365Z" fill="#FF005C"/>
<path d="M96.8433 63.9882C96.2651 66.1082 95.3977 68.132 94.3377 70.0593C90.483 76.9978 86.2428 78.3469 82.5808 77.9615C86.821 72.854 85.4719 70.2521 96.8433 63.9882Z" fill="#FF005C"/>
<path d="M87.785 65.0482C90.387 59.3625 88.6523 57.0497 98 48.3766C97.4218 55.5078 95.109 63.699 87.785 65.0482Z" fill="#FF005C"/>
<path d="M89.8088 51.364C90.8688 45.1965 88.9415 43.1728 95.7836 33.3433C96.8436 40.2817 96.3618 48.2803 89.8088 51.364Z" fill="#FF005C"/>
<path d="M88.845 37.5834C88.5559 31.8013 86.3395 29.7776 91.0615 19.0808C93.2779 25.5374 94.338 33.1505 88.845 37.5834Z" fill="#FF005C"/>
<path d="M84.2191 5.87842C87.3992 11.8532 89.6157 18.8881 85.2792 24.1883C84.0264 18.4062 81.5208 17.3462 84.2191 5.87842Z" fill="#FF005C"/>
</g>
</svg>

<svg xmlns="http://www.w3.org/2000/svg" fill="none" viewBox="0 0 98 130"><g fill="#DD0707" opacity=".5"><path d="M9.4 122l.7-.4 2-1.1c9-5 21.1-9 33-14.4 4.5-2 8.8-4.1 13-6.6 30.7-18.3 37.8-48.6 24.3-80.6l.4-.1C96.4 51 89.4 81.5 58.5 100c-4.2 2.4-8.5 4.8-13 6.7-11.9 5.5-24 9.4-33 14.3l-1.6 1-.7.3c-3.5 2-6.5 4.6-9 7.7l-.7-.5c2.5-3 5.6-5.6 9-7.5z"/><path d="M23.2 114.2c-.8-3.2-.6-7 6-12.3 1.7-1.3 3.5-2.5 5.2-3.6-.5 11-6.6 12.4-11.2 15.9zM39.1 106.9c-1.7 1.2-3.4 2-4 2.6-1.3-6.6 5-11.6 10.5-15.4.2 3-.5 5.8-2 8.4a17.6 17.6 0 01-4.5 4.4zM46.6 104.6c-1-5.8 3.4-10.7 9-15.7 1.4 8.3-3.5 12-9 15.7zM57.7 98.8c-1.1-4.7 1.6-9.9 6.6-16 2.6 6.6-.6 11.6-6.6 16zM68 91.6c-1.9-4.9.9-11.5 3.4-16.2 3 4.4 2.8 10-3.5 16.2zM76.7 66.6c4.8 4.6 3.7 10.9 0 16.4-2.6-4.7-1.4-11.4 0-16.4zM79.9 56.5c3.4 2.2 6.3 7.3 3 16-3.2-4-3.6-11.2-3-16zM81.6 50.1A32 32 0 0181 46C85 47.5 88.4 52 86.8 61c-2.8-3-4.6-6.8-5.2-11zM80 34.8c3.8 1 8 4.9 8.2 14-5-3.6-7.5-10.6-8.1-14zM77.4 23.8c6 .8 8.6 7.2 9.8 13-4.6-3-8.2-7.6-9.8-13zM84.2 24.9c-5-2.5-9-6.7-11-11.8 7 0 10 9 11 11.8z"/><path d="M72 0c7.6 6 10.1 12.6 9.7 17.2-4.1-2.6-8-12.6-9.6-17.2zM25 116.7c1.1-.2 7.7-2.1 11.6-1.2 3 .8 5.9 2.3 8.3 4.2-2.1.6-4.3 1-6.6 1.2-8.5 1.1-11.4-1.6-13.3-4.2zM49.5 109.7c3.1.5 6.1 1.6 8.9 3.2-2.1.8-4.3 1.5-6.7 2a22 22 0 01-8.6 0 9 9 0 01-5.1-3.5c.5 0 2.5-.7 4.7-1.2s4.5-.7 6.8-.5zM71.5 104.3c-2 1.1-4.1 2-6.4 2.9-8.2 2.8-11.8.6-14.1-1.8 1.1-.3 7.3-2.9 11.2-2.9 3.1.1 6.2.7 9.3 1.8zM83.2 93c-1.8 1.6-3.7 3-5.7 4.2-7.3 4.3-11.6 3.1-14.4 1 5.3-2.2 7.1-5.7 20-5.2zM74.1 89.2c5.7-4 5.4-6.8 18-10-4 6.4-10.9 13-18 10zM96.8 64c-.5 2.1-1.4 4.1-2.5 6-3.8 7-8 8.3-11.7 8 4.2-5.1 2.9-7.7 14.2-14zM87.8 65c2.6-5.6.9-8 10.2-16.6-.6 7.1-2.9 15.3-10.2 16.6zM89.8 51.4c1-6.2-.9-8.2 6-18 1 6.9.6 14.9-6 18zM88.8 37.6c-.2-5.8-2.5-7.8 2.3-18.5 2.2 6.4 3.2 14-2.3 18.5zM84.2 5.9c3.2 6 5.4 13 1 18.3-1.2-5.8-3.7-6.9-1-18.3z"/></g></svg>
